lib/logotmp/nrk-logo-nrk-oslo-og-viken.svg

<svg width="145" height="24" viewBox="0 0 145 24" fill="none" xmlns="http://www.w3.org/2000/svg">
<path d="M0 17.9976V5.99865H4V17.9976H0ZM9.24381 7.90834L11.5081 17.9976H7.19917L4.49549 5.99865H6.91217C7.46635 5.99146 8.00406 6.18681 8.4245 6.54795C8.84562 6.89394 9.08495 7.37426 9.24381 7.90834ZM12 17.9976V5.99865H16V17.9976H12ZM19.0105 10.5617C18.5862 10.5658 18.1687 10.4548 17.8025 10.2405C17.4412 10.0317 17.1411 9.73152 16.9323 9.37016C16.7178 9.00389 16.6068 8.58632 16.611 8.16188C16.6061 7.74002 16.7172 7.32494 16.9323 6.96199C17.1433 6.60455 17.4431 6.30765 17.8025 6.10008C18.1689 5.88606 18.5862 5.77507 19.0105 5.77894C19.4322 5.7744 19.8471 5.88549 20.2102 6.10008C20.566 6.30947 20.8626 6.60612 21.072 6.96199C21.2868 7.32504 21.3979 7.74005 21.3933 8.16188C21.3973 8.58629 21.2863 9.00379 21.072 9.37016C20.8649 9.72993 20.5679 10.0298 20.2102 10.2405C19.8471 10.4555 19.4324 10.5666 19.0105 10.5617ZM22 17.9976V5.99865H26V17.9976H22ZM30.9737 12.5558C30.9848 12.5674 31.0693 12.7054 31.2272 12.9698C31.3851 13.2342 31.5906 13.5722 31.8439 13.9838C32.0974 14.3953 32.3649 14.8318 32.6463 15.2936C32.9278 15.7553 33.1926 16.1919 33.4408 16.6033C33.6881 17.0147 33.9697 17.4795 34.2857 17.9976H29.9598C29.6893 17.5582 29.4441 17.161 29.2245 16.8061C29.0048 16.4512 28.7713 16.0681 28.5238 15.6569C28.2758 15.2461 28.0306 14.8461 27.7882 14.457C27.5458 14.0679 27.3375 13.7272 27.1633 13.4346C26.9883 13.1419 26.8671 12.9447 26.7997 12.8431C26.6325 12.591 26.5336 12.2999 26.5127 11.9981C26.5294 11.7085 26.6226 11.4285 26.7828 11.1867C26.8503 11.074 26.9743 10.874 27.1545 10.5867C27.3348 10.2994 27.546 9.95861 27.7882 9.56428C28.0304 9.16995 28.2756 8.76716 28.5238 8.35593C28.772 7.9447 29.0055 7.55879 29.2245 7.19826C29.4445 6.83811 29.6897 6.43814 29.9598 5.99837H34.2857L30.9396 11.4571C30.8361 11.6191 30.7777 11.8059 30.7706 11.9981C30.7818 12.1999 30.8528 12.3939 30.9737 12.5558Z" fill="white"/>
<g clip-path="url(#clip0_5918_1637)">
<path d="M48.4674 7.52564C47.9774 6.98499 47.3805 6.56823 46.6765 6.27538C45.9725 5.98252 45.17 5.83609 44.2689 5.83609C43.3678 5.83609 42.5399 5.98815 41.819 6.29227C41.0982 6.59639 40.4871 7.02441 39.9859 7.57633C39.4846 8.12825 39.1017 8.78999 38.837 9.56155C38.5723 10.3331 38.4399 11.1863 38.4399 12.1212C38.4399 13.0561 38.5695 13.8981 38.8285 14.6471C39.0876 15.3961 39.4649 16.0353 39.9605 16.5647C40.4561 17.0941 41.0559 17.4968 41.7599 17.7728C42.4639 18.0487 43.2608 18.1867 44.1506 18.1867C45.0404 18.1867 45.8599 18.0403 46.5751 17.7474C47.2904 17.4546 47.9014 17.0378 48.4083 16.4971C48.9151 15.9565 49.3037 15.3088 49.5741 14.5542C49.8444 13.7995 49.9796 12.9435 49.9796 11.9861C49.9796 11.0286 49.85 10.2233 49.591 9.46862C49.3319 8.71396 48.9574 8.0663 48.4674 7.52564ZM47.893 13.9121C47.7184 14.4866 47.4621 14.9794 47.1242 15.3905C46.7863 15.8016 46.3696 16.1226 45.874 16.3535C45.3784 16.5844 44.8095 16.6999 44.1675 16.6999C43.5255 16.6999 42.9989 16.5929 42.5202 16.3789C42.0415 16.1649 41.6304 15.8579 41.2868 15.4581C40.9433 15.0582 40.6842 14.5767 40.5096 14.0135C40.3351 13.4503 40.2478 12.8196 40.2478 12.1212C40.2478 11.1863 40.4083 10.3585 40.7293 9.63758C41.0503 8.9167 41.5093 8.35071 42.1063 7.93958C42.7032 7.52846 43.4241 7.3229 44.2689 7.3229C45.1137 7.3229 45.7895 7.51719 46.3639 7.90579C46.9384 8.29439 47.3805 8.84067 47.6902 9.54465C48 10.2486 48.1548 11.0681 48.1548 12.0029C48.1548 12.7013 48.0676 13.3377 47.893 13.9121ZM57.8613 14.7485C57.9571 14.9906 58.0049 15.2807 58.0049 15.6186C58.0049 16.0691 57.912 16.4577 57.7261 16.7844C57.5403 17.111 57.284 17.3757 56.9574 17.5785C56.6308 17.7812 56.2478 17.9304 55.8085 18.0262C55.3692 18.1219 54.9018 18.1698 54.4062 18.1698C54.1922 18.1698 53.981 18.1642 53.7726 18.1529C53.5642 18.1416 53.3502 18.1135 53.1306 18.0684C52.9109 18.0234 52.68 17.9699 52.4379 17.9079C52.1957 17.846 51.9282 17.7643 51.6353 17.6629L51.5677 16.2268C51.8268 16.3169 52.0831 16.3986 52.3365 16.4718C52.5899 16.545 52.8377 16.607 53.0799 16.6577C53.3221 16.7083 53.553 16.7478 53.7726 16.7759C53.9922 16.8041 54.1922 16.8182 54.3724 16.8182C54.7103 16.8182 55.0285 16.7844 55.327 16.7168C55.6255 16.6492 55.8676 16.5338 56.0535 16.3704C56.2393 16.2071 56.3323 15.9847 56.3323 15.7031C56.3323 15.5679 56.3069 15.444 56.2562 15.3314C56.2056 15.2187 56.1323 15.1202 56.0366 15.0357C55.9409 14.9512 55.8254 14.8724 55.6902 14.7992C55.5551 14.7259 55.4086 14.6612 55.251 14.6049C55.1383 14.5711 55.0229 14.5345 54.9046 14.495C54.7863 14.4556 54.6652 14.4162 54.5413 14.3768C54.4174 14.3373 54.2907 14.2979 54.1612 14.2585C54.0317 14.2191 53.8993 14.1768 53.7642 14.1318C53.629 14.0867 53.4995 14.0417 53.3756 13.9966C53.1503 13.9065 52.9391 13.7967 52.742 13.6672C52.5449 13.5376 52.3731 13.3884 52.2267 13.2194C52.0802 13.0505 51.962 12.8449 51.8719 12.6027C51.7817 12.3606 51.7367 12.0818 51.7367 11.7664C51.7367 11.3271 51.8212 10.947 51.9901 10.626C52.1591 10.305 52.3984 10.0403 52.7082 9.83188C53.0179 9.6235 53.3812 9.46581 53.7979 9.3588C54.2147 9.2518 54.6765 9.1983 55.1834 9.1983C55.3861 9.1983 55.5917 9.20674 55.8001 9.22364C56.0084 9.24053 56.2196 9.27151 56.4336 9.31656C56.6476 9.36162 56.8588 9.41794 57.0672 9.48552C57.2756 9.5531 57.4868 9.63195 57.7008 9.72206L57.5825 11.0906C57.4361 11.023 57.2728 10.9611 57.0926 10.9047C56.9123 10.8484 56.7349 10.7977 56.5604 10.7527C56.3858 10.7076 56.2112 10.671 56.0366 10.6429C55.862 10.6147 55.7015 10.595 55.5551 10.5837C55.4086 10.5725 55.2735 10.5668 55.1496 10.5668C54.868 10.5668 54.6174 10.5894 54.3977 10.6344C54.1781 10.6795 53.9894 10.747 53.8317 10.8372C53.674 10.9273 53.5558 11.0371 53.4769 11.1666C53.3981 11.2962 53.3587 11.451 53.3587 11.6312C53.3587 11.7889 53.3953 11.9297 53.4685 12.0536C53.5417 12.1775 53.6374 12.2845 53.7557 12.3746C53.874 12.4648 54.0063 12.5492 54.1527 12.6281C54.2879 12.6957 54.4372 12.7576 54.6005 12.8139C54.7638 12.8702 54.9328 12.9238 55.1073 12.9744C55.2819 13.0251 55.4565 13.0814 55.6311 13.1434C55.8057 13.2053 55.9831 13.2645 56.1633 13.3208C56.4111 13.4109 56.6476 13.5207 56.8729 13.6503C57.0982 13.7798 57.2953 13.9347 57.4643 14.1149C57.6332 14.2951 57.7656 14.5063 57.8613 14.7485ZM62.8877 16.7337L63.0905 16.6999L62.9215 18.0346C62.8427 18.0572 62.7441 18.0797 62.6258 18.1022C62.5076 18.1247 62.3865 18.1416 62.2626 18.1529C62.1387 18.1642 62.0092 18.1698 61.874 18.1698C61.6037 18.1698 61.353 18.1388 61.1221 18.0769C60.8912 18.0149 60.6913 17.9107 60.5223 17.7643C60.3534 17.6179 60.2239 17.4292 60.1338 17.1983C60.0436 16.9674 59.9986 16.6886 59.9986 16.362V5.49818L61.7219 5.24475V15.6017C61.7219 15.8044 61.736 15.979 61.7642 16.1254C61.7923 16.2719 61.8402 16.393 61.9078 16.4887C61.9754 16.5844 62.0598 16.6548 62.1612 16.6999C62.2626 16.7449 62.3865 16.7675 62.5329 16.7675C62.6005 16.7675 62.6596 16.7675 62.7103 16.759C62.761 16.7534 62.8201 16.7449 62.8877 16.7337ZM70.8539 9.73895C70.2063 9.37851 69.4432 9.1983 68.5646 9.1983C67.686 9.1983 66.9173 9.38415 66.2584 9.75585C65.5994 10.1275 65.0869 10.6513 64.7209 11.3271C64.3548 12.0029 64.1718 12.8027 64.1718 13.7263C64.1718 14.6499 64.3435 15.4468 64.6871 16.117C65.0306 16.7872 65.5234 17.2969 66.1654 17.646C66.8075 17.9952 67.5509 18.1698 68.3956 18.1698C69.2404 18.1698 70.0514 17.984 70.7272 17.6122C71.403 17.2405 71.9296 16.7112 72.307 16.0241C72.6843 15.337 72.873 14.526 72.873 13.5911C72.873 12.6562 72.6984 11.9269 72.3492 11.268C72 10.6091 71.5016 10.0994 70.8539 9.73895ZM70.7526 15.3989C70.5329 15.872 70.226 16.224 69.8318 16.4549C69.4375 16.6858 68.987 16.8013 68.4801 16.8013C67.9733 16.8013 67.534 16.683 67.1623 16.4465C66.7906 16.2099 66.4977 15.8551 66.2837 15.382C66.0697 14.909 65.9627 14.3233 65.9627 13.6249C65.9627 12.9266 66.0697 12.369 66.2837 11.9185C66.4977 11.4679 66.799 11.13 67.1876 10.9047C67.5762 10.6795 68.0408 10.5668 68.5815 10.5668C69.0095 10.5668 69.3784 10.6372 69.6882 10.778C69.9979 10.9188 70.257 11.1244 70.4653 11.3947C70.6737 11.665 70.8286 11.9889 70.93 12.3662C71.0313 12.7435 71.082 13.1631 71.082 13.6249C71.082 14.3345 70.9722 14.9259 70.7526 15.3989ZM85.0968 9.73895C84.4492 9.37851 83.6861 9.1983 82.8075 9.1983C81.9289 9.1983 81.1602 9.38415 80.5013 9.75585C79.8423 10.1275 79.3298 10.6513 78.9638 11.3271C78.5977 12.0029 78.4147 12.8027 78.4147 13.7263C78.4147 14.6499 78.5864 15.4468 78.93 16.117C79.2735 16.7872 79.7663 17.2969 80.4083 17.646C81.0504 17.9952 81.7938 18.1698 82.6385 18.1698C83.4833 18.1698 84.2943 17.984 84.9701 17.6122C85.6459 17.2405 86.1725 16.7112 86.5499 16.0241C86.9272 15.337 87.1159 14.526 87.1159 13.5911C87.1159 12.6562 86.9413 11.9269 86.5921 11.268C86.2429 10.6091 85.7445 10.0994 85.0968 9.73895ZM84.9955 15.3989C84.7758 15.872 84.4689 16.224 84.0747 16.4549C83.6804 16.6858 83.2299 16.8013 82.723 16.8013C82.2162 16.8013 81.7769 16.683 81.4052 16.4465C81.0335 16.2099 80.7406 15.8551 80.5266 15.382C80.3126 14.909 80.2056 14.3233 80.2056 13.6249C80.2056 12.9266 80.3126 12.369 80.5266 11.9185C80.7406 11.4679 81.0419 11.13 81.4305 10.9047C81.8191 10.6795 82.2837 10.5668 82.8244 10.5668C83.2524 10.5668 83.6213 10.6372 83.9311 10.778C84.2408 10.9188 84.4999 11.1244 84.7082 11.3947C84.9166 11.665 85.0715 11.9889 85.1729 12.3662C85.2742 12.7435 85.3249 13.1631 85.3249 13.6249C85.3249 14.3345 85.2151 14.9259 84.9955 15.3989ZM94.6259 9.41794C94.3837 9.35036 94.1219 9.29685 93.8403 9.25743C93.5587 9.21801 93.2546 9.1983 92.9279 9.1983C92.3647 9.1983 91.8297 9.3053 91.3228 9.51931C90.816 9.73332 90.3626 10.0403 89.9627 10.4401C89.5629 10.84 89.2503 11.3356 89.025 11.9269C88.7998 12.5183 88.6871 13.1969 88.6871 13.9628C88.6871 14.8189 88.8307 15.5594 89.118 16.1846C89.4052 16.8097 89.8248 17.2941 90.3767 17.6376C90.9286 17.9811 91.5988 18.1529 92.3872 18.1529C92.9955 18.1529 93.5981 18.0346 94.1951 17.7981C94.5189 17.6686 94.8399 17.4855 95.1581 17.2518V17.7136C95.1581 18.1416 95.1046 18.5162 94.9976 18.8372C94.8906 19.1582 94.7273 19.4285 94.5076 19.6482C94.288 19.8678 94.0008 20.0311 93.646 20.1381C93.2912 20.2451 92.8603 20.2986 92.3535 20.2986C92.0155 20.2986 91.6692 20.2789 91.3144 20.2395C90.9596 20.2001 90.602 20.1325 90.2415 20.0368C89.8811 19.941 89.5263 19.8199 89.1771 19.6735L89.363 21.1603C89.6671 21.2842 89.9853 21.3884 90.3175 21.4729C90.6498 21.5573 90.9962 21.6221 91.3566 21.6672C91.7171 21.7122 92.0888 21.7348 92.4717 21.7348C93.4291 21.7348 94.2345 21.5742 94.8878 21.2532C95.5411 20.9322 96.0339 20.4873 96.3661 19.9185C96.6984 19.3497 96.8646 18.6936 96.8646 17.9502V9.1983L95.2116 9.6235C95.0258 9.54465 94.8315 9.47426 94.6259 9.41794ZM94.9385 16.1846C94.7132 16.3141 94.4964 16.4211 94.288 16.5056C94.0796 16.5901 93.8769 16.6548 93.6798 16.6999C93.4826 16.7449 93.2771 16.7675 93.0631 16.7675C92.4774 16.7675 91.9902 16.6577 91.6016 16.438C91.213 16.2184 90.9258 15.8861 90.7399 15.4412C90.5541 14.9963 90.4612 14.4246 90.4612 13.7263C90.4612 13.2082 90.5259 12.7492 90.6555 12.3493C90.785 11.9494 90.9708 11.62 91.213 11.3609C91.4552 11.1019 91.7537 10.9019 92.1085 10.7611C92.4633 10.6203 92.866 10.5499 93.3165 10.5499C93.5868 10.5499 93.8515 10.5725 94.1106 10.6175C94.3697 10.6626 94.6343 10.7273 94.9047 10.8118C94.9863 10.8372 95.0736 10.8709 95.1581 10.9047V16.055C95.0849 16.1001 95.0089 16.1452 94.9385 16.1846ZM110.736 6.00505H112.493L108.32 18.0008H106.123L101.967 6.00505H103.859L106.326 13.4053C106.461 13.7882 106.594 14.1965 106.723 14.6302C106.853 15.0638 106.979 15.5003 107.103 15.9396C107.168 16.1733 107.23 16.3958 107.289 16.6126C107.345 16.407 107.405 16.193 107.466 15.9734C107.585 15.5454 107.709 15.1173 107.838 14.6893C107.968 14.2613 108.094 13.8558 108.218 13.4729L110.736 6.00505ZM115.94 6.09797C116.041 6.27256 116.092 6.46686 116.092 6.68087C116.092 6.89488 116.041 7.09199 115.94 7.27221C115.838 7.45243 115.7 7.59322 115.526 7.6946C115.351 7.79597 115.157 7.84666 114.943 7.84666C114.729 7.84666 114.532 7.79597 114.351 7.6946C114.171 7.59322 114.028 7.45243 113.921 7.27221C113.814 7.09199 113.76 6.89488 113.76 6.68087C113.76 6.46686 113.814 6.27256 113.921 6.09797C114.028 5.92339 114.171 5.78259 114.351 5.67559C114.532 5.56858 114.729 5.51508 114.943 5.51508C115.157 5.51508 115.351 5.56858 115.526 5.67559C115.7 5.78259 115.838 5.92339 115.94 6.09797ZM114.047 9.46862L115.771 9.21519V18.0008H114.047V9.46862ZM121.743 13.3827L125.84 18.0008H123.61L120.158 13.8615H120.13V18.0008H118.406V5.49818L120.13 5.24475V12.5605H120.752L123.644 9.38415H125.756L121.743 13.3827ZM133.308 10.4739C132.981 10.0515 132.568 9.73332 132.066 9.51931C131.565 9.3053 130.993 9.1983 130.351 9.1983C129.709 9.1983 129.135 9.31093 128.628 9.53621C128.121 9.76148 127.69 10.0769 127.336 10.4824C126.981 10.8878 126.71 11.375 126.525 11.9438C126.339 12.5126 126.246 13.1462 126.246 13.8446C126.246 14.7682 126.412 15.5538 126.744 16.2015C127.077 16.8491 127.569 17.3391 128.223 17.6714C128.876 18.0037 129.676 18.1698 130.622 18.1698C131.072 18.1698 131.469 18.1445 131.813 18.0938C132.156 18.0431 132.48 17.9671 132.784 17.8657C133.088 17.7643 133.393 17.6348 133.697 17.4771L133.815 16.1761C133.601 16.255 133.384 16.3338 133.165 16.4127C132.945 16.4915 132.717 16.5619 132.48 16.6239C132.244 16.6858 132.002 16.7309 131.754 16.759C131.506 16.7872 131.258 16.8013 131.01 16.8013C130.503 16.8013 130.064 16.7534 129.692 16.6577C129.321 16.5619 129.008 16.3986 128.755 16.1677C128.501 15.9368 128.31 15.6242 128.18 15.23C128.079 14.9174 128.017 14.5457 127.997 14.1149H134.102C134.181 13.3264 134.15 12.6281 134.009 12.0198C133.868 11.4116 133.635 10.8963 133.308 10.4739ZM129.05 10.8794C129.411 10.6485 129.85 10.533 130.368 10.533C130.886 10.533 131.343 10.6598 131.669 10.9132C131.996 11.1666 132.224 11.5186 132.354 11.9692C132.438 12.2592 132.475 12.5774 132.477 12.9153H128.034C128.076 12.538 128.144 12.2029 128.248 11.9269C128.423 11.4595 128.69 11.1103 129.05 10.8794ZM144.121 12.5098V18.0008H142.398V12.8646C142.398 12.5154 142.364 12.2113 142.297 11.9523C142.229 11.6932 142.122 11.4792 141.976 11.3102C141.829 11.1413 141.643 11.0146 141.418 10.9301C141.193 10.8456 140.922 10.8034 140.607 10.8034C140.382 10.8034 140.148 10.8231 139.906 10.8625C139.664 10.9019 139.421 10.9611 139.179 11.0399C138.937 11.1187 138.695 11.2117 138.453 11.3187C138.273 11.3975 138.101 11.4876 137.937 11.5834V18.0008H136.214V9.46862L137.937 9.21519V10.4232C138.09 10.3021 138.247 10.1839 138.411 10.0769C138.839 9.79527 139.292 9.57844 139.771 9.42638C140.249 9.27433 140.731 9.1983 141.215 9.1983C141.869 9.1983 142.409 9.31656 142.837 9.5531C143.265 9.78964 143.586 10.1501 143.8 10.6344C144.014 11.1187 144.121 11.7439 144.121 12.5098Z" fill="white"/>
</g>
<defs>
<clipPath id="clip0_5918_1637">
<rect width="107" height="17" fill="white" transform="translate(38 5)"/>
</clipPath>
</defs>
</svg>

<svg xmlns="http://www.w3.org/2000/svg" viewBox="0 0 145 24"><path fill="#fff" d="M0 17.998v-12h4v12H0Zm9.244-10.09 2.264 10.09H7.2l-2.704-12h2.417a2.276 2.276 0 0 1 1.513.55c.42.346.66.826.819 1.36ZM12 17.998v-12h4v12h-4Zm7.01-7.436a2.381 2.381 0 0 1-2.078-1.192 2.345 2.345 0 0 1-.321-1.208 2.301 2.301 0 0 1 .321-1.2A2.41 2.41 0 0 1 20.21 6.1c.356.21.653.506.862.862.215.363.326.778.321 1.2a2.35 2.35 0 0 1-.321 1.208 2.4 2.4 0 0 1-.862.87 2.301 2.301 0 0 1-1.2.322ZM22 17.998v-12h4v12h-4Zm8.974-5.442c.01.011.095.15.253.414s.364.602.617 1.014a316.22 316.22 0 0 1 1.597 2.62c.247.41.529.876.845 1.394H29.96c-.27-.44-.516-.837-.736-1.192-.22-.355-.453-.738-.7-1.15-.248-.41-.493-.81-.736-1.199-.242-.39-.45-.73-.625-1.022a18.04 18.04 0 0 0-.363-.592 1.747 1.747 0 0 1-.287-.845c.016-.29.11-.57.27-.811.067-.113.191-.313.371-.6a182.106 182.106 0 0 0 1.37-2.23l.7-1.159.736-1.2h4.326l-3.346 5.46a1.079 1.079 0 0 0-.17.54c.012.202.083.396.204.558Z"/><g clip-path="url(#a)"><path fill="#fff" d="M48.467 7.526a4.943 4.943 0 0 0-1.79-1.25c-.705-.293-1.507-.44-2.408-.44s-1.73.152-2.45.456a5.137 5.137 0 0 0-1.833 1.284 5.627 5.627 0 0 0-1.149 1.986c-.265.771-.397 1.624-.397 2.56 0 .934.13 1.776.389 2.525.259.75.636 1.388 1.132 1.918.495.53 1.095.932 1.799 1.208.704.276 1.5.414 2.39.414.89 0 1.71-.147 2.425-.44a5.153 5.153 0 0 0 1.833-1.25 5.527 5.527 0 0 0 1.166-1.943c.27-.755.406-1.61.406-2.568 0-.957-.13-1.763-.389-2.517a5.524 5.524 0 0 0-1.124-1.943Zm-.574 6.386a4.24 4.24 0 0 1-.769 1.478 3.518 3.518 0 0 1-1.25.963c-.496.231-1.065.347-1.707.347-.642 0-1.168-.107-1.647-.321a3.481 3.481 0 0 1-1.233-.92 4.006 4.006 0 0 1-.777-1.445 6.38 6.38 0 0 1-.262-1.893c0-.935.16-1.763.481-2.483.321-.721.78-1.287 1.377-1.698.597-.412 1.318-.617 2.163-.617.845 0 1.52.194 2.095.583.574.388 1.017.935 1.326 1.639.31.704.465 1.523.465 2.458 0 .698-.087 1.335-.262 1.91Zm9.968.836c.096.243.144.533.144.87 0 .451-.093.84-.279 1.166a2.21 2.21 0 0 1-.769.794c-.326.203-.71.352-1.148.448-.44.096-.907.144-1.403.144-.214 0-.425-.006-.633-.017a4.366 4.366 0 0 1-.642-.085 14.64 14.64 0 0 1-.693-.16 10.19 10.19 0 0 1-.803-.245l-.067-1.436c.259.09.515.172.769.245.253.073.5.135.743.186.242.05.473.09.693.118.22.028.42.042.6.042.337 0 .656-.034.954-.101a1.62 1.62 0 0 0 .727-.347c.185-.163.278-.385.278-.667a.863.863 0 0 0-.296-.667 1.857 1.857 0 0 0-.346-.237 3.122 3.122 0 0 0-.439-.194 11.77 11.77 0 0 1-.346-.11 28.078 28.078 0 0 0-.744-.236 15.935 15.935 0 0 1-.785-.262c-.226-.09-.437-.2-.634-.33a2.477 2.477 0 0 1-.515-.448 1.988 1.988 0 0 1-.355-.616 2.387 2.387 0 0 1-.135-.837c0-.439.084-.819.253-1.14.17-.321.408-.586.718-.794a3.49 3.49 0 0 1 1.09-.473c.417-.107.878-.16 1.385-.16.203 0 .409.008.617.025.208.017.42.048.634.093.214.045.425.1.633.169.209.067.42.146.634.236l-.118 1.369a4.072 4.072 0 0 0-.49-.186c-.18-.057-.358-.107-.533-.152a5.741 5.741 0 0 0-1.005-.17 5.35 5.35 0 0 0-.405-.016 3.77 3.77 0 0 0-.752.067c-.22.046-.409.113-.566.203a.96.96 0 0 0-.355.33.877.877 0 0 0-.118.464c0 .158.036.299.11.423.073.123.168.23.287.32.118.09.25.175.397.254.135.068.284.13.447.186.164.056.333.11.507.16.175.051.35.107.524.17.175.061.352.12.532.177.248.09.485.2.71.33.225.129.422.284.591.464.17.18.302.391.397.633Zm5.027 1.986.203-.034-.17 1.335a3.775 3.775 0 0 1-1.047.135c-.27 0-.521-.031-.752-.093a1.493 1.493 0 0 1-.6-.313 1.413 1.413 0 0 1-.388-.566c-.09-.23-.135-.51-.135-.836V5.498l1.723-.253v10.357c0 .202.014.377.042.523a.925.925 0 0 0 .144.364.61.61 0 0 0 .253.21.914.914 0 0 0 .372.068c.067 0 .127 0 .177-.008.051-.006.11-.014.178-.025Zm7.966-6.995c-.648-.36-1.41-.54-2.29-.54-.878 0-1.647.185-2.306.557a3.895 3.895 0 0 0-1.537 1.571c-.366.676-.55 1.476-.55 2.4 0 .923.172 1.72.516 2.39.344.67.836 1.18 1.478 1.529.642.35 1.386.524 2.23.524.845 0 1.656-.186 2.332-.558a3.935 3.935 0 0 0 1.58-1.588c.377-.687.566-1.498.566-2.433 0-.935-.175-1.664-.524-2.323a3.691 3.691 0 0 0-1.495-1.529Zm-.101 5.66c-.22.473-.527.825-.921 1.056-.394.23-.845.346-1.352.346-.507 0-.946-.118-1.318-.354-.371-.237-.664-.592-.878-1.065-.214-.473-.321-1.059-.321-1.757s.107-1.256.32-1.707c.215-.45.516-.788.905-1.013.388-.225.853-.338 1.394-.338.428 0 .796.07 1.106.211.31.14.569.346.777.617.209.27.364.594.465.971.101.377.152.797.152 1.259 0 .71-.11 1.3-.33 1.774Zm14.344-5.66c-.648-.36-1.41-.54-2.29-.54-.878 0-1.647.185-2.306.557a3.895 3.895 0 0 0-1.537 1.571c-.366.676-.55 1.476-.55 2.4 0 .923.172 1.72.516 2.39.343.67.836 1.18 1.478 1.529.642.35 1.386.524 2.23.524.845 0 1.656-.186 2.332-.558a3.935 3.935 0 0 0 1.58-1.588c.377-.687.566-1.498.566-2.433 0-.935-.175-1.664-.524-2.323a3.691 3.691 0 0 0-1.495-1.529Zm-.101 5.66c-.22.473-.527.825-.921 1.056-.395.23-.845.346-1.352.346-.507 0-.946-.118-1.318-.354-.371-.237-.664-.592-.878-1.065-.214-.473-.321-1.059-.321-1.757s.107-1.256.32-1.707c.215-.45.516-.788.904-1.013.39-.225.854-.338 1.394-.338.428 0 .797.07 1.107.211.31.14.569.346.777.617.209.27.364.594.465.971.101.377.152.797.152 1.259 0 .71-.11 1.3-.33 1.774Zm9.63-5.981a6.042 6.042 0 0 0-.786-.16 6.595 6.595 0 0 0-.912-.06c-.563 0-1.098.107-1.605.321-.507.214-.96.521-1.36.921-.4.4-.713.896-.938 1.487-.225.591-.338 1.27-.338 2.036 0 .856.144 1.596.431 2.222.287.625.707 1.11 1.259 1.453.552.343 1.222.515 2.01.515.609 0 1.211-.118 1.808-.355.324-.13.645-.313.963-.546v.462c0 .428-.053.802-.16 1.123-.107.321-.27.591-.49.811-.22.22-.507.383-.862.49-.355.107-.786.16-1.293.16-.337 0-.684-.02-1.039-.058a7.333 7.333 0 0 1-1.072-.203 8.196 8.196 0 0 1-1.065-.363l.186 1.486c.304.124.622.228.954.313.333.084.68.15 1.04.194.36.045.732.068 1.115.068.957 0 1.763-.16 2.416-.482.653-.32 1.146-.766 1.478-1.334.332-.57.499-1.225.499-1.969V9.198l-1.653.425a4.622 4.622 0 0 0-.586-.205Zm.313 6.767c-.226.13-.443.236-.651.32a3.99 3.99 0 0 1-.608.195 2.764 2.764 0 0 1-.617.067c-.586 0-1.073-.11-1.461-.329a1.98 1.98 0 0 1-.862-.997c-.186-.445-.279-1.016-.279-1.715 0-.518.065-.977.195-1.377.129-.4.315-.729.557-.988.242-.26.54-.46.896-.6.354-.14.757-.211 1.208-.211.27 0 .535.022.794.067.259.046.523.11.794.195.081.025.169.059.253.093v5.15c-.073.045-.15.09-.22.13Zm15.797-10.18h1.757l-4.173 11.996h-2.197l-4.156-11.996h1.892l2.467 7.4c.135.383.268.792.397 1.225.13.434.256.87.38 1.31l.186.673.177-.64a62.028 62.028 0 0 1 .752-2.5l2.518-7.468Zm5.204.093c.101.175.152.369.152.583 0 .214-.051.411-.152.591a1.114 1.114 0 0 1-.997.575 1.19 1.19 0 0 1-.592-.152 1.148 1.148 0 0 1-.43-.423 1.138 1.138 0 0 1-.161-.591c0-.214.054-.408.161-.583.107-.175.25-.315.43-.422.181-.107.378-.16.592-.16.214 0 .408.053.583.16a1.2 1.2 0 0 1 .414.422Zm-1.893 3.37 1.724-.253v8.786h-1.724V9.469Zm7.696 3.915L125.84 18h-2.23l-3.452-4.14h-.028v4.14h-1.724V5.498l1.724-.253v7.315h.622l2.892-3.176h2.112l-4.013 3.999Zm11.565-2.91a3.06 3.06 0 0 0-1.242-.954c-.501-.214-1.073-.32-1.715-.32-.642 0-1.216.112-1.723.337a3.67 3.67 0 0 0-1.292.946 4.125 4.125 0 0 0-.811 1.462 6.094 6.094 0 0 0-.279 1.9c0 .924.166 1.71.498 2.357a3.306 3.306 0 0 0 1.479 1.47c.653.333 1.453.499 2.399.499.45 0 .847-.026 1.191-.076a5.7 5.7 0 0 0 .971-.228c.304-.102.609-.231.913-.389l.118-1.3-.65.236c-.22.078-.448.149-.685.21a5.138 5.138 0 0 1-.726.136 6.58 6.58 0 0 1-.744.042c-.507 0-.946-.048-1.318-.143a2.168 2.168 0 0 1-.937-.49c-.254-.231-.445-.544-.575-.938a4.295 4.295 0 0 1-.183-1.115h6.105c.079-.789.048-1.487-.093-2.095-.141-.608-.374-1.124-.701-1.546Zm-4.258.406c.361-.23.8-.346 1.318-.346s.975.127 1.301.38c.327.254.555.606.685 1.056.084.29.121.608.123.946h-4.443c.042-.377.11-.712.214-.988.175-.467.442-.817.802-1.048Zm15.071 1.63v5.492h-1.723v-5.136c0-.35-.034-.654-.101-.913a1.578 1.578 0 0 0-.321-.642 1.358 1.358 0 0 0-.558-.38 2.314 2.314 0 0 0-.811-.127c-.225 0-.459.02-.701.06-.242.039-.485.098-.727.177a7.662 7.662 0 0 0-.726.279c-.18.079-.352.169-.516.264v6.418h-1.723V9.469l1.723-.254v1.208c.153-.12.31-.24.474-.346a5.48 5.48 0 0 1 1.36-.65c.478-.153.96-.229 1.444-.229.654 0 1.194.119 1.622.355.428.237.749.597.963 1.081.214.485.321 1.11.321 1.876Z"/></g><defs><clipPath id="a"><path fill="#fff" d="M38 5h107v17H38z"/></clipPath></defs></svg>
